X:1
T:Waterloo Dance,aka. RDO.23, The
T:Waterloo Dance,aka. RDO.23, The
T:untitled
C:untitled
L:1/8
Q:1/4=100
M:2/4
K:D
V:1 treble 
V:1
 A/G/ | Fd/B/ Af/e/ | dd d c/d/ | ee d/c/B/c/ | d/e/f/d/ AA/G/ | Fd/B/ Af/e/ | dd d c/d/ | %7
 ee d/c/B/c/ | df/e/ d || c/d/ | ee/c/ aa/f/ | ee/c/ AA | ^G/A/B/c/ d/B/e/d/ | d2 c c/d/ | %14
 ee/c/ aa/f/ | ee/c/ AA | ^G/A/B/c/ d/B/A/G/ |"^cr" A3 || f/g/ | a3 f | b<agf | ee e/d/e/f/ | %22
 defg | a3 f | b<agf | ee e/d/e/f/ | df d |] %27

